parity-harness/fixtures/fixture.cube
# Parity-harness fixture LUT (deterministic, generated once for part 13)
LUT_3D_SIZE 8
0.000000 0.015000 0.000000
0.202755 0.015000 0.000000
0.365467 0.015000 0.000000
0.515853 0.015000 0.000000
0.658754 0.015000 0.000000
0.796337 0.015000 0.000000
0.929825 0.015000 0.000000
1.000000 0.015000 0.000000
0.000000 0.153571 0.000000
0.202755 0.153571 0.000000
0.365467 0.153571 0.000000
0.515853 0.153571 0.000000
0.658754 0.153571 0.000000
0.796337 0.153571 0.000000
0.929825 0.153571 0.000000
1.000000 0.153571 0.000000
0.000000 0.292143 0.000000
0.202755 0.292143 0.000000
0.365467 0.292143 0.000000
0.515853 0.292143 0.000000
0.658754 0.292143 0.000000
0.796337 0.292143 0.000000
0.929825 0.292143 0.000000
1.000000 0.292143 0.000000
0.000000 0.430714 0.000000
0.202755 0.430714 0.000000
0.365467 0.430714 0.000000
0.515853 0.430714 0.000000
0.658754 0.430714 0.000000
0.796337 0.430714 0.000000
0.929825 0.430714 0.000000
1.000000 0.430714 0.000000
0.000000 0.569286 0.000000
0.202755 0.569286 0.000000
0.365467 0.569286 0.000000
0.515853 0.569286 0.000000
0.658754 0.569286 0.000000
0.796337 0.569286 0.000000
0.929825 0.569286 0.000000
1.000000 0.569286 0.000000
0.000000 0.707857 0.000000
0.202755 0.707857 0.000000
0.365467 0.707857 0.000000
0.515853 0.707857 0.000000
0.658754 0.707857 0.000000
0.796337 0.707857 0.000000
0.929825 0.707857 0.000000
1.000000 0.707857 0.000000
0.000000 0.846429 0.000000
0.202755 0.846429 0.000000
0.365467 0.846429 0.000000
0.515853 0.846429 0.000000
0.658754 0.846429 0.000000
0.796337 0.846429 0.000000
0.929825 0.846429 0.000000
1.000000 0.846429 0.000000
0.000000 0.985000 0.000000
0.202755 0.985000 0.000000
0.365467 0.985000 0.000000
0.515853 0.985000 0.000000
0.658754 0.985000 0.000000
0.796337 0.985000 0.000000
0.929825 0.985000 0.000000
1.000000 0.985000 0.000000
0.000000 0.015000 0.098158
0.202755 0.015000 0.098158
0.365467 0.015000 0.098158
0.515853 0.015000 0.098158
0.658754 0.015000 0.098158
0.796337 0.015000 0.098158
0.929825 0.015000 0.098158
1.000000 0.015000 0.098158
0.000000 0.153571 0.098158
0.202755 0.153571 0.098158
0.365467 0.153571 0.098158
0.515853 0.153571 0.098158
0.658754 0.153571 0.098158
0.796337 0.153571 0.098158
0.929825 0.153571 0.098158
1.000000 0.153571 0.098158
0.000000 0.292143 0.098158
0.202755 0.292143 0.098158
0.365467 0.292143 0.098158
0.515853 0.292143 0.098158
0.658754 0.292143 0.098158
0.796337 0.292143 0.098158
0.929825 0.292143 0.098158
1.000000 0.292143 0.098158
0.000000 0.430714 0.098158
0.202755 0.430714 0.098158
0.365467 0.430714 0.098158
0.515853 0.430714 0.098158
0.658754 0.430714 0.098158
0.796337 0.430714 0.098158
0.929825 0.430714 0.098158
1.000000 0.430714 0.098158
0.000000 0.569286 0.098158
0.202755 0.569286 0.098158
0.365467 0.569286 0.098158
0.515853 0.569286 0.098158
0.658754 0.569286 0.098158
0.796337 0.569286 0.098158
0.929825 0.569286 0.098158
1.000000 0.569286 0.098158
0.000000 0.707857 0.098158
0.202755 0.707857 0.098158
0.365467 0.707857 0.098158
0.515853 0.707857 0.098158
0.658754 0.707857 0.098158
0.796337 0.707857 0.098158
0.929825 0.707857 0.098158
1.000000 0.707857 0.098158
0.000000 0.846429 0.098158
0.202755 0.846429 0.098158
0.365467 0.846429 0.098158
0.515853 0.846429 0.098158
0.658754 0.846429 0.098158
0.796337 0.846429 0.098158
0.929825 0.846429 0.098158
1.000000 0.846429 0.098158
0.000000 0.985000 0.098158
0.202755 0.985000 0.098158
0.365467 0.985000 0.098158
0.515853 0.985000 0.098158
0.658754 0.985000 0.098158
0.796337 0.985000 0.098158
0.929825 0.985000 0.098158
1.000000 0.985000 0.098158
0.000000 0.015000 0.217826
0.202755 0.015000 0.217826
0.365467 0.015000 0.217826
0.515853 0.015000 0.217826
0.658754 0.015000 0.217826
0.796337 0.015000 0.217826
0.929825 0.015000 0.217826
1.000000 0.015000 0.217826
0.000000 0.153571 0.217826
0.202755 0.153571 0.217826
0.365467 0.153571 0.217826
0.515853 0.153571 0.217826
0.658754 0.153571 0.217826
0.796337 0.153571 0.217826
0.929825 0.153571 0.217826
1.000000 0.153571 0.217826
0.000000 0.292143 0.217826
0.202755 0.292143 0.217826
0.365467 0.292143 0.217826
0.515853 0.292143 0.217826
0.658754 0.292143 0.217826
0.796337 0.292143 0.217826
0.929825 0.292143 0.217826
1.000000 0.292143 0.217826
0.000000 0.430714 0.217826
0.202755 0.430714 0.217826
0.365467 0.430714 0.217826
0.515853 0.430714 0.217826
0.658754 0.430714 0.217826
0.796337 0.430714 0.217826
0.929825 0.430714 0.217826
1.000000 0.430714 0.217826
0.000000 0.569286 0.217826
0.202755 0.569286 0.217826
0.365467 0.569286 0.217826
0.515853 0.569286 0.217826
0.658754 0.569286 0.217826
0.796337 0.569286 0.217826
0.929825 0.569286 0.217826
1.000000 0.569286 0.217826
0.000000 0.707857 0.217826
0.202755 0.707857 0.217826
0.365467 0.707857 0.217826
0.515853 0.707857 0.217826
0.658754 0.707857 0.217826
0.796337 0.707857 0.217826
0.929825 0.707857 0.217826
1.000000 0.707857 0.217826
0.000000 0.846429 0.217826
0.202755 0.846429 0.217826
0.365467 0.846429 0.217826
0.515853 0.846429 0.217826
0.658754 0.846429 0.217826
0.796337 0.846429 0.217826
0.929825 0.846429 0.217826
1.000000 0.846429 0.217826
0.000000 0.985000 0.217826
0.202755 0.985000 0.217826
0.365467 0.985000 0.217826
0.515853 0.985000 0.217826
0.658754 0.985000 0.217826
0.796337 0.985000 0.217826
0.929825 0.985000 0.217826
1.000000 0.985000 0.217826
0.000000 0.015000 0.347228
0.202755 0.015000 0.347228
0.365467 0.015000 0.347228
0.515853 0.015000 0.347228
0.658754 0.015000 0.347228
0.796337 0.015000 0.347228
0.929825 0.015000 0.347228
1.000000 0.015000 0.347228
0.000000 0.153571 0.347228
0.202755 0.153571 0.347228
0.365467 0.153571 0.347228
0.515853 0.153571 0.347228
0.658754 0.153571 0.347228
0.796337 0.153571 0.347228
0.929825 0.153571 0.347228
1.000000 0.153571 0.347228
0.000000 0.292143 0.347228
0.202755 0.292143 0.347228
0.365467 0.292143 0.347228
0.515853 0.292143 0.347228
0.658754 0.292143 0.347228
0.796337 0.292143 0.347228
0.929825 0.292143 0.347228
1.000000 0.292143 0.347228
0.000000 0.430714 0.347228
0.202755 0.430714 0.347228
0.365467 0.430714 0.347228
0.515853 0.430714 0.347228
0.658754 0.430714 0.347228
0.796337 0.430714 0.347228
0.929825 0.430714 0.347228
1.000000 0.430714 0.347228
0.000000 0.569286 0.347228
0.202755 0.569286 0.347228
0.365467 0.569286 0.347228
0.515853 0.569286 0.347228
0.658754 0.569286 0.347228
0.796337 0.569286 0.347228
0.929825 0.569286 0.347228
1.000000 0.569286 0.347228
0.000000 0.707857 0.347228
0.202755 0.707857 0.347228
0.365467 0.707857 0.347228
0.515853 0.707857 0.347228
0.658754 0.707857 0.347228
0.796337 0.707857 0.347228
0.929825 0.707857 0.347228
1.000000 0.707857 0.347228
0.000000 0.846429 0.347228
0.202755 0.846429 0.347228
0.365467 0.846429 0.347228
0.515853 0.846429 0.347228
0.658754 0.846429 0.347228
0.796337 0.846429 0.347228
0.929825 0.846429 0.347228
1.000000 0.846429 0.347228
0.000000 0.985000 0.347228
0.202755 0.985000 0.347228
0.365467 0.985000 0.347228
0.515853 0.985000 0.347228
0.658754 0.985000 0.347228
0.796337 0.985000 0.347228
0.929825 0.985000 0.347228
1.000000 0.985000 0.347228
0.000000 0.015000 0.483386
0.202755 0.015000 0.483386
0.365467 0.015000 0.483386
0.515853 0.015000 0.483386
0.658754 0.015000 0.483386
0.796337 0.015000 0.483386
0.929825 0.015000 0.483386
1.000000 0.015000 0.483386
0.000000 0.153571 0.483386
0.202755 0.153571 0.483386
0.365467 0.153571 0.483386
0.515853 0.153571 0.483386
0.658754 0.153571 0.483386
0.796337 0.153571 0.483386
0.929825 0.153571 0.483386
1.000000 0.153571 0.483386
0.000000 0.292143 0.483386
0.202755 0.292143 0.483386
0.365467 0.292143 0.483386
0.515853 0.292143 0.483386
0.658754 0.292143 0.483386
0.796337 0.292143 0.483386
0.929825 0.292143 0.483386
1.000000 0.292143 0.483386
0.000000 0.430714 0.483386
0.202755 0.430714 0.483386
0.365467 0.430714 0.483386
0.515853 0.430714 0.483386
0.658754 0.430714 0.483386
0.796337 0.430714 0.483386
0.929825 0.430714 0.483386
1.000000 0.430714 0.483386
0.000000 0.569286 0.483386
0.202755 0.569286 0.483386
0.365467 0.569286 0.483386
0.515853 0.569286 0.483386
0.658754 0.569286 0.483386
0.796337 0.569286 0.483386
0.929825 0.569286 0.483386
1.000000 0.569286 0.483386
0.000000 0.707857 0.483386
0.202755 0.707857 0.483386
0.365467 0.707857 0.483386
0.515853 0.707857 0.483386
0.658754 0.707857 0.483386
0.796337 0.707857 0.483386
0.929825 0.707857 0.483386
1.000000 0.707857 0.483386
0.000000 0.846429 0.483386
0.202755 0.846429 0.483386
0.365467 0.846429 0.483386
0.515853 0.846429 0.483386
0.658754 0.846429 0.483386
0.796337 0.846429 0.483386
0.929825 0.846429 0.483386
1.000000 0.846429 0.483386
0.000000 0.985000 0.483386
0.202755 0.985000 0.483386
0.365467 0.985000 0.483386
0.515853 0.985000 0.483386
0.658754 0.985000 0.483386
0.796337 0.985000 0.483386
0.929825 0.985000 0.483386
1.000000 0.985000 0.483386
0.000000 0.015000 0.624799
0.202755 0.015000 0.624799
0.365467 0.015000 0.624799
0.515853 0.015000 0.624799
0.658754 0.015000 0.624799
0.796337 0.015000 0.624799
0.929825 0.015000 0.624799
1.000000 0.015000 0.624799
0.000000 0.153571 0.624799
0.202755 0.153571 0.624799
0.365467 0.153571 0.624799
0.515853 0.153571 0.624799
0.658754 0.153571 0.624799
0.796337 0.153571 0.624799
0.929825 0.153571 0.624799
1.000000 0.153571 0.624799
0.000000 0.292143 0.624799
0.202755 0.292143 0.624799
0.365467 0.292143 0.624799
0.515853 0.292143 0.624799
0.658754 0.292143 0.624799
0.796337 0.292143 0.624799
0.929825 0.292143 0.624799
1.000000 0.292143 0.624799
0.000000 0.430714 0.624799
0.202755 0.430714 0.624799
0.365467 0.430714 0.624799
0.515853 0.430714 0.624799
0.658754 0.430714 0.624799
0.796337 0.430714 0.624799
0.929825 0.430714 0.624799
1.000000 0.430714 0.624799
0.000000 0.569286 0.624799
0.202755 0.569286 0.624799
0.365467 0.569286 0.624799
0.515853 0.569286 0.624799
0.658754 0.569286 0.624799
0.796337 0.569286 0.624799
0.929825 0.569286 0.624799
1.000000 0.569286 0.624799
0.000000 0.707857 0.624799
0.202755 0.707857 0.624799
0.365467 0.707857 0.624799
0.515853 0.707857 0.624799
0.658754 0.707857 0.624799
0.796337 0.707857 0.624799
0.929825 0.707857 0.624799
1.000000 0.707857 0.624799
0.000000 0.846429 0.624799
0.202755 0.846429 0.624799
0.365467 0.846429 0.624799
0.515853 0.846429 0.624799
0.658754 0.846429 0.624799
0.796337 0.846429 0.624799
0.929825 0.846429 0.624799
1.000000 0.846429 0.624799
0.000000 0.985000 0.624799
0.202755 0.985000 0.624799
0.365467 0.985000 0.624799
0.515853 0.985000 0.624799
0.658754 0.985000 0.624799
0.796337 0.985000 0.624799
0.929825 0.985000 0.624799
1.000000 0.985000 0.624799
0.000000 0.015000 0.770547
0.202755 0.015000 0.770547
0.365467 0.015000 0.770547
0.515853 0.015000 0.770547
0.658754 0.015000 0.770547
0.796337 0.015000 0.770547
0.929825 0.015000 0.770547
1.000000 0.015000 0.770547
0.000000 0.153571 0.770547
0.202755 0.153571 0.770547
0.365467 0.153571 0.770547
0.515853 0.153571 0.770547
0.658754 0.153571 0.770547
0.796337 0.153571 0.770547
0.929825 0.153571 0.770547
1.000000 0.153571 0.770547
0.000000 0.292143 0.770547
0.202755 0.292143 0.770547
0.365467 0.292143 0.770547
0.515853 0.292143 0.770547
0.658754 0.292143 0.770547
0.796337 0.292143 0.770547
0.929825 0.292143 0.770547
1.000000 0.292143 0.770547
0.000000 0.430714 0.770547
0.202755 0.430714 0.770547
0.365467 0.430714 0.770547
0.515853 0.430714 0.770547
0.658754 0.430714 0.770547
0.796337 0.430714 0.770547
0.929825 0.430714 0.770547
1.000000 0.430714 0.770547
0.000000 0.569286 0.770547
0.202755 0.569286 0.770547
0.365467 0.569286 0.770547
0.515853 0.569286 0.770547
0.658754 0.569286 0.770547
0.796337 0.569286 0.770547
0.929825 0.569286 0.770547
1.000000 0.569286 0.770547
0.000000 0.707857 0.770547
0.202755 0.707857 0.770547
0.365467 0.707857 0.770547
0.515853 0.707857 0.770547
0.658754 0.707857 0.770547
0.796337 0.707857 0.770547
0.929825 0.707857 0.770547
1.000000 0.707857 0.770547
0.000000 0.846429 0.770547
0.202755 0.846429 0.770547
0.365467 0.846429 0.770547
0.515853 0.846429 0.770547
0.658754 0.846429 0.770547
0.796337 0.846429 0.770547
0.929825 0.846429 0.770547
1.000000 0.846429 0.770547
0.000000 0.985000 0.770547
0.202755 0.985000 0.770547
0.365467 0.985000 0.770547
0.515853 0.985000 0.770547
0.658754 0.985000 0.770547
0.796337 0.985000 0.770547
0.929825 0.985000 0.770547
1.000000 0.985000 0.770547
0.000000 0.015000 0.920000
0.202755 0.015000 0.920000
0.365467 0.015000 0.920000
0.515853 0.015000 0.920000
0.658754 0.015000 0.920000
0.796337 0.015000 0.920000
0.929825 0.015000 0.920000
1.000000 0.015000 0.920000
0.000000 0.153571 0.920000
0.202755 0.153571 0.920000
0.365467 0.153571 0.920000
0.515853 0.153571 0.920000
0.658754 0.153571 0.920000
0.796337 0.153571 0.920000
0.929825 0.153571 0.920000
1.000000 0.153571 0.920000
0.000000 0.292143 0.920000
0.202755 0.292143 0.920000
0.365467 0.292143 0.920000
0.515853 0.292143 0.920000
0.658754 0.292143 0.920000
0.796337 0.292143 0.920000
0.929825 0.292143 0.920000
1.000000 0.292143 0.920000
0.000000 0.430714 0.920000
0.202755 0.430714 0.920000
0.365467 0.430714 0.920000
0.515853 0.430714 0.920000
0.658754 0.430714 0.920000
0.796337 0.430714 0.920000
0.929825 0.430714 0.920000
1.000000 0.430714 0.920000
0.000000 0.569286 0.920000
0.202755 0.569286 0.920000
0.365467 0.569286 0.920000
0.515853 0.569286 0.920000
0.658754 0.569286 0.920000
0.796337 0.569286 0.920000
0.929825 0.569286 0.920000
1.000000 0.569286 0.920000
0.000000 0.707857 0.920000
0.202755 0.707857 0.920000
0.365467 0.707857 0.920000
0.515853 0.707857 0.920000
0.658754 0.707857 0.920000
0.796337 0.707857 0.920000
0.929825 0.707857 0.920000
1.000000 0.707857 0.920000
0.000000 0.846429 0.920000
0.202755 0.846429 0.920000
0.365467 0.846429 0.920000
0.515853 0.846429 0.920000
0.658754 0.846429 0.920000
0.796337 0.846429 0.920000
0.929825 0.846429 0.920000
1.000000 0.846429 0.920000
0.000000 0.985000 0.920000
0.202755 0.985000 0.920000
0.365467 0.985000 0.920000
0.515853 0.985000 0.920000
0.658754 0.985000 0.920000
0.796337 0.985000 0.920000
0.929825 0.985000 0.920000
1.000000 0.985000 0.920000
